svgs/sharp-regular/arrows-to-eye.svg

<svg xmlns="http://www.w3.org/2000/svg" viewBox="0 0 640 512"><!--! Font Awesome Pro 6.6.0 by @fontawesome - https://fontawesome.com License - https://fontawesome.com/license (Commercial License) Copyright 2024 Fonticons, Inc. --><path d="M52.2 18.2l-17-17L1.3 35.2l17 17L78.1 112 40 112l-24 0 0 48 24 0 96 0 24 0 0-24 0-96 0-24-48 0 0 24 0 38.1L52.2 18.2zM224.6 310.8c-19-17.6-33.5-37.9-43.1-54.8c9.6-16.9 24.1-37.2 43.1-54.8C250.9 176.7 282.7 160 320 160s69.1 16.7 95.4 41.2c19 17.6 33.5 37.9 43.1 54.8c-9.6 16.9-24.1 37.2-43.1 54.8C389.1 335.3 357.3 352 320 352s-69.1-16.7-95.4-41.2zM320 400c105.6 0 172-96 192-144c-20-48-86.4-144-192-144s-172 96-192 144c20 48 86.4 144 192 144zM604.8 1.3l-17 17L528 78.1 528 40l0-24-48 0 0 24 0 96 0 24 24 0 96 0 24 0 0-48-24 0-38.1 0 59.8-59.8 17-17L604.8 1.3zM52.2 493.8L112 433.9l0 38.1 0 24 48 0 0-24 0-96 0-24-24 0-96 0-24 0 0 48 24 0 38.1 0L18.2 459.8l-17 17 33.9 33.9 17-17zm552.6 17l33.9-33.9-17-17L561.9 400l38.1 0 24 0 0-48-24 0-96 0-24 0 0 24 0 96 0 24 48 0 0-24 0-38.1 59.8 59.8 17 17zM320 320a64 64 0 1 0 0-128 64 64 0 1 0 0 128z"/></svg>

<svg xmlns="http://www.w3.org/2000/svg" viewBox="0 0 640 512"><!--! Font Awesome Pro 6.5.2 by @fontawesome - https://fontawesome.com License - https://fontawesome.com/license (Commercial License) Copyright 2024 Fonticons, Inc. --><path d="M52.2 18.2l-17-17L1.3 35.2l17 17L78.1 112H40 16v48H40h96 24V136 40 16H112V40 78.1L52.2 18.2zM224.6 310.8c-19-17.6-33.5-37.9-43.1-54.8c9.6-16.9 24.1-37.2 43.1-54.8C250.9 176.7 282.7 160 320 160s69.1 16.7 95.4 41.2c19 17.6 33.5 37.9 43.1 54.8c-9.6 16.9-24.1 37.2-43.1 54.8C389.1 335.3 357.3 352 320 352s-69.1-16.7-95.4-41.2zM320 400c105.6 0 172-96 192-144c-20-48-86.4-144-192-144s-172 96-192 144c20 48 86.4 144 192 144zM604.8 1.3l-17 17L528 78.1V40 16H480V40v96 24h24 96 24V112H600 561.9l59.8-59.8 17-17L604.8 1.3zM52.2 493.8L112 433.9V472v24h48V472 376 352H136 40 16v48H40 78.1L18.2 459.8l-17 17 33.9 33.9 17-17zm552.6 17l33.9-33.9-17-17L561.9 400H600h24V352H600 504 480v24 96 24h48V472 433.9l59.8 59.8 17 17zM320 320a64 64 0 1 0 0-128 64 64 0 1 0 0 128z"/></svg>
